flaticon/sport/hiking.svg

<svg xmlns="http://www.w3.org/2000/svg" width="32" height="32" viewBox="0 0 24 24">
    <path d="M5.71875 4.480469C5.613281 4.554688 5.507812 4.625 5.40625 4.691406 5.21875 4.808594 5.164062 5.054688 5.28125 5.242188 5.359375 5.363281 5.488281 5.429688 5.621094 5.429688 5.691406 5.429688 5.765625 5.40625 5.832031 5.367188 5.949219 5.292969 6.066406 5.214844 6.183594 5.128906 6.363281 5 6.402344 4.75 6.273438 4.570312 6.144531 4.390625 5.894531 4.347656 5.71875 4.480469zM4.070312 4.8125C4.09375 4.714844 4.132812 4.605469 4.183594 4.488281 4.269531 4.285156 4.175781 4.050781 3.972656 3.964844 3.769531 3.878906 3.53125 3.972656 3.445312 4.175781 3.382812 4.328125 3.332031 4.476562 3.296875 4.609375 3.238281 4.824219 3.367188 5.042969 3.582031 5.097656 3.613281 5.105469 3.648438 5.109375 3.683594 5.109375 3.859375 5.109375 4.023438 4.992188 4.070312 4.8125zM7.449219 3.480469C7.289062 3.324219 7.039062 3.324219 6.882812 3.480469 6.789062 3.574219 6.695312 3.664062 6.605469 3.75 6.441406 3.898438 6.433594 4.152344 6.585938 4.3125 6.664062 4.398438 6.769531 4.441406 6.875 4.441406 6.972656 4.441406 7.070312 4.40625 7.148438 4.335938 7.25 4.242188 7.347656 4.144531 7.449219 4.046875 7.605469 3.890625 7.605469 3.636719 7.449219 3.480469zM6.667969 1.441406C6.746094 1.441406 6.828125 1.414062 6.898438 1.363281 7.003906 1.289062 7.109375 1.21875 7.210938 1.152344 7.398438 1.03125 7.453125.785156 7.332031.597656 7.214844.414062 6.96875.359375 6.78125.476562 6.667969.550781 6.550781.628906 6.433594.714844 6.253906.84375 6.210938 1.09375 6.339844 1.273438 6.417969 1.382812 6.542969 1.441406 6.667969 1.441406zM5.601562 2.425781C5.679688 2.40625 5.753906 2.359375 5.808594 2.292969 5.890625 2.195312 5.976562 2.097656 6.058594 2.011719 6.210938 1.847656 6.203125 1.597656 6.039062 1.445312 5.878906 1.292969 5.625 1.300781 5.476562 1.464844 5.382812 1.5625 5.289062 1.667969 5.195312 1.78125 5.054688 1.949219 5.074219 2.203125 5.246094 2.34375 5.347656 2.429688 5.480469 2.457031 5.601562 2.425781zM4.433594 5.160156C4.335938 5.1875 4.242188 5.199219 4.164062 5.199219 3.953125 5.1875 3.757812 5.359375 3.746094 5.578125 3.734375 5.800781 3.90625 5.988281 4.125 6L4.167969 6C4.3125 6 4.476562 5.976562 4.644531 5.929688 4.859375 5.871094 4.984375 5.652344 4.925781 5.4375 4.867188 5.226562 4.648438 5.101562 4.433594 5.160156zM4.34375 2.730469C4.253906 2.84375 4.171875 2.957031 4.089844 3.066406 3.964844 3.246094 4.003906 3.496094 4.183594 3.625 4.253906 3.675781 4.335938 3.699219 4.417969 3.699219 4.542969 3.699219 4.664062 3.640625 4.742188 3.53125 4.8125 3.429688 4.890625 3.328125 4.972656 3.226562 5.109375 3.050781 5.078125 2.800781 4.90625 2.664062 4.730469 2.527344 4.480469 2.558594 4.34375 2.730469zM16.789062 1.152344C16.890625 1.214844 16.996094 1.289062 17.101562 1.363281 17.171875 1.414062 17.253906 1.4375 17.335938 1.4375 17.457031 1.4375 17.582031 1.382812 17.660156 1.273438 17.789062 1.09375 17.746094.84375 17.570312.714844 17.449219.628906 17.335938.550781 17.21875.476562 17.035156.355469 16.785156.410156 16.667969.597656 16.546875.785156 16.601562 1.03125 16.789062 1.152344zM19.832031 5.199219C19.757812 5.199219 19.667969 5.1875 19.566406 5.160156 19.355469 5.101562 19.132812 5.226562 19.074219 5.4375 19.015625 5.652344 19.140625 5.871094 19.355469 5.929688 19.527344 5.976562 19.6875 6 19.832031 6 19.839844 6 19.867188 6 19.875 6 20.09375 5.988281 20.25 5.808594 20.242188 5.589844 20.238281 5.375 20.046875 5.199219 19.832031 5.199219zM19.585938 3.699219C19.664062 3.699219 19.746094 3.671875 19.816406 3.625 19.996094 3.496094 20.039062 3.246094 19.910156 3.066406 19.832031 2.953125 19.746094 2.84375 19.660156 2.730469 19.523438 2.554688 19.269531 2.527344 19.097656 2.664062 18.921875 2.800781 18.894531 3.050781 19.03125 3.226562 19.109375 3.328125 19.1875 3.429688 19.257812 3.53125 19.335938 3.640625 19.460938 3.699219 19.585938 3.699219zM20.703125 4.609375C20.667969 4.476562 20.617188 4.328125 20.554688 4.175781 20.46875 3.972656 20.234375 3.878906 20.027344 3.964844 19.824219 4.050781 19.730469 4.285156 19.816406 4.492188 19.867188 4.605469 19.90625 4.714844 19.929688 4.8125 19.976562 4.992188 20.140625 5.109375 20.316406 5.109375 20.351562 5.109375 20.382812 5.105469 20.417969 5.097656 20.632812 5.042969 20.761719 4.824219 20.703125 4.609375zM18.53125 1.511719C18.371094 1.359375 18.117188 1.367188 17.96875 1.53125 17.816406 1.691406 17.824219 1.945312 17.988281 2.09375 18.074219 2.175781 18.164062 2.261719 18.257812 2.355469L18.265625 2.363281C18.339844 2.441406 18.4375 2.476562 18.539062 2.476562 18.640625 2.476562 18.742188 2.4375 18.824219 2.355469 18.980469 2.199219 18.972656 1.941406 18.816406 1.785156 18.722656 1.691406 18.628906 1.597656 18.53125 1.511719zM18.59375 4.691406C18.492188 4.625 18.390625 4.554688 18.285156 4.480469 18.105469 4.347656 17.855469 4.390625 17.726562 4.570312 17.597656 4.75 17.636719 5 17.816406 5.128906 17.933594 5.214844 18.050781 5.292969 18.167969 5.367188 18.234375 5.410156 18.308594 5.429688 18.378906 5.429688 18.511719 5.429688 18.644531 5.363281 18.71875 5.242188 18.835938 5.054688 18.78125 4.808594 18.59375 4.691406zM17.121094 3.480469C16.964844 3.324219 16.710938 3.324219 16.554688 3.480469 16.398438 3.636719 16.394531 3.890625 16.554688 4.046875 16.652344 4.144531 16.75 4.242188 16.851562 4.335938 16.929688 4.40625 17.027344 4.441406 17.125 4.441406 17.230469 4.441406 17.339844 4.398438 17.417969 4.316406 17.566406 4.152344 17.558594 3.898438 17.394531 3.75 17.304688 3.664062 17.210938 3.574219 17.121094 3.480469zM10.199219 22L9.402344 22 9.402344 18.398438C9.621094 18.398438 9.800781 18.222656 9.800781 18 9.800781 17.777344 9.621094 17.601562 9.402344 17.601562L9.402344 14C9.621094 14 9.800781 13.820312 9.800781 13.601562 9.800781 13.378906 9.621094 13.199219 9.402344 13.199219L9.402344 10 10.199219 10 10.199219 1.199219C10.199219.539062 9.660156 0 9 0 8.339844 0 7.800781.539062 7.800781 1.199219L7.800781 10 8.601562 10 8.601562 13.199219C8.378906 13.199219 8.199219 13.378906 8.199219 13.601562 8.199219 13.820312 8.378906 14 8.601562 14L8.601562 17.601562C8.378906 17.601562 8.199219 17.777344 8.199219 18 8.199219 18.222656 8.378906 18.398438 8.601562 18.398438L8.601562 22 7.800781 22C7.578125 22 7.402344 22.179688 7.402344 22.398438 7.402344 22.621094 7.578125 22.800781 7.800781 22.800781L8.601562 22.800781 8.601562 23.601562C8.601562 23.820312 8.78125 24 9 24 9.222656 24 9.402344 23.820312 9.402344 23.601562L9.402344 22.800781 10.199219 22.800781C10.421875 22.800781 10.601562 22.621094 10.601562 22.398438 10.601562 22.179688 10.421875 22 10.199219 22zM8.601562 1.199219C8.601562.980469 8.78125.800781 9 .800781 9.222656.800781 9.402344.980469 9.402344 1.199219L9.402344 4.398438 8.601562 4.398438zM8.601562 9.199219L8.601562 5.199219 9.402344 5.199219 9.402344 9.199219zM16.199219 22L15.402344 22 15.402344 18.398438C15.621094 18.398438 15.800781 18.222656 15.800781 18 15.800781 17.777344 15.621094 17.601562 15.402344 17.601562L15.402344 14C15.621094 14 15.800781 13.820312 15.800781 13.601562 15.800781 13.378906 15.621094 13.199219 15.402344 13.199219L15.402344 10 16.199219 10 16.199219 1.199219C16.199219.539062 15.660156 0 15 0 14.339844 0 13.800781.539062 13.800781 1.199219L13.800781 10 14.601562 10 14.601562 13.199219C14.378906 13.199219 14.199219 13.378906 14.199219 13.601562 14.199219 13.820312 14.378906 14 14.601562 14L14.601562 17.601562C14.378906 17.601562 14.199219 17.777344 14.199219 18 14.199219 18.222656 14.378906 18.398438 14.601562 18.398438L14.601562 22 13.800781 22C13.578125 22 13.402344 22.179688 13.402344 22.398438 13.402344 22.621094 13.578125 22.800781 13.800781 22.800781L14.601562 22.800781 14.601562 23.601562C14.601562 23.820312 14.78125 24 15 24 15.222656 24 15.402344 23.820312 15.402344 23.601562L15.402344 22.800781 16.199219 22.800781C16.421875 22.800781 16.601562 22.621094 16.601562 22.398438 16.601562 22.179688 16.421875 22 16.199219 22zM14.601562 1.199219C14.601562.980469 14.78125.800781 15 .800781 15.222656.800781 15.402344.980469 15.402344 1.199219L15.402344 4.398438 14.601562 4.398438zM14.601562 9.199219L14.601562 5.199219 15.402344 5.199219 15.402344 9.199219zM14.601562 9.199219"/>
</svg>

<svg xmlns="http://www.w3.org/2000/svg" width="32" height="32" viewBox="0 0 24 24">
    <path d="M5.719 4.48c-.106.075-.211.145-.313.211a.399.399 0 1 0 .426.676c.117-.074.234-.152.352-.238a.4.4 0 0 0-.465-.649zm0 0M4.07 4.813c.024-.098.063-.208.114-.325a.399.399 0 0 0-.211-.523.403.403 0 0 0-.528.21c-.062.153-.113.302-.148.434a.396.396 0 0 0 .387.5.4.4 0 0 0 .386-.296zm0 0M7.45 3.48a.4.4 0 0 0-.567 0c-.094.094-.188.184-.278.27a.393.393 0 0 0-.02.563.39.39 0 0 0 .29.128.408.408 0 0 0 .273-.105c.102-.094.2-.191.301-.29a.4.4 0 0 0 0-.566zm0 0M6.668 1.441a.4.4 0 0 0 .23-.078c.106-.074.211-.144.313-.21a.4.4 0 1 0-.43-.676c-.113.074-.23.152-.347.238a.4.4 0 0 0 .234.726zm0 0M5.602 2.426a.397.397 0 0 0 .207-.133c.082-.098.168-.195.25-.281a.398.398 0 0 0-.02-.567.393.393 0 0 0-.562.02 5.754 5.754 0 0 0-.282.316.398.398 0 0 0 .051.563.396.396 0 0 0 .356.082zm0 0M4.434 5.16a1.02 1.02 0 0 1-.27.04.405.405 0 0 0-.418.378c-.012.223.16.41.379.422h.043c.144 0 .309-.023.477-.07a.4.4 0 1 0-.211-.77zm0 0M4.344 2.73c-.09.114-.172.227-.254.336a.404.404 0 0 0 .094.559c.07.05.152.074.234.074a.397.397 0 0 0 .324-.168c.07-.101.149-.203.23-.304a.402.402 0 0 0-.066-.563.402.402 0 0 0-.562.066zm0 0M16.79 1.152c.1.063.206.137.312.211.07.051.152.075.234.075a.398.398 0 0 0 .234-.723 8.005 8.005 0 0 0-.351-.238.395.395 0 0 0-.551.12.4.4 0 0 0 .121.555zm0 0M19.832 5.2c-.074 0-.164-.013-.266-.04a.4.4 0 0 0-.21.77c.171.047.331.07.476.07h.043a.387.387 0 0 0 .367-.41.412.412 0 0 0-.41-.39zm0 0M19.586 3.7a.4.4 0 0 0 .324-.633c-.078-.114-.164-.223-.25-.337a.399.399 0 0 0-.562-.066.399.399 0 0 0-.067.563c.078.101.157.203.227.304.078.11.203.168.328.168zm0 0M20.703 4.61a3.579 3.579 0 0 0-.148-.434.402.402 0 0 0-.739.316c.051.113.09.223.114.32a.4.4 0 0 0 .488.286.396.396 0 0 0 .285-.489zm0 0M18.531 1.512a.393.393 0 0 0-.562.02.393.393 0 0 0 .02.562c.085.082.175.168.269.261l.008.008a.369.369 0 0 0 .273.114.4.4 0 0 0 .285-.122.406.406 0 0 0-.008-.57c-.093-.094-.187-.187-.285-.273zm0 0M18.594 4.691a10.969 10.969 0 0 1-.309-.21.4.4 0 1 0-.469.648c.118.086.235.164.352.238a.399.399 0 0 0 .55-.125.399.399 0 0 0-.124-.55zm0 0M17.121 3.48a.4.4 0 0 0-.566.567c.097.098.195.195.297.289a.408.408 0 0 0 .566-.02.401.401 0 0 0-.023-.566 8.833 8.833 0 0 1-.274-.27zm0 0M10.2 22h-.798v-3.602a.398.398 0 1 0 0-.796V14a.4.4 0 0 0 0-.8V10h.797V1.2C10.2.54 9.66 0 9 0S7.8.54 7.8 1.2V10h.802v3.2a.401.401 0 0 0 0 .8v3.602a.398.398 0 1 0 0 .796V22H7.8a.398.398 0 0 0-.399.398c0 .223.176.403.399.403h.8v.8a.4.4 0 0 0 .801 0v-.8h.797a.401.401 0 0 0 0-.8zM8.601 1.2a.4.4 0 0 1 .8 0v3.198h-.8zm0 8v-4h.8v4zm0 0M16.2 22h-.798v-3.602a.398.398 0 1 0 0-.796V14a.4.4 0 0 0 0-.8V10h.797V1.2C16.2.54 15.66 0 15 0s-1.2.54-1.2 1.2V10h.802v3.2a.401.401 0 0 0 0 .8v3.602a.398.398 0 1 0 0 .796V22H13.8a.398.398 0 0 0-.399.398c0 .223.176.403.399.403h.8v.8a.4.4 0 0 0 .801 0v-.8h.797a.401.401 0 0 0 0-.8zM14.601 1.2a.4.4 0 0 1 .8 0v3.198h-.8zm0 8v-4h.8v4zm0 0"/>
</svg>
